assets/svg/1f1f8-1f1f7.svg

<svg xmlns="http://www.w3.org/2000/svg" width="64" height="64" viewBox="0 0 64 64"><path fill="#C94747" d="M2 32c0 3.885.746 7.593 2.092 11H59.91C61.254 39.593 62 35.885 62 32s-.746-7.593-2.09-11H4.092A29.865 29.865 0 0 0 2 32z"/><path fill="#FFF" d="M7.285 49h49.43a29.91 29.91 0 0 0 3.195-6H4.092a29.903 29.903 0 0 0 3.193 6zM4.092 21H59.91a29.91 29.91 0 0 0-3.195-6H7.285a29.903 29.903 0 0 0-3.193 6z"/><path fill="#FFCE31" d="M32 37.308L38.182 42l-2.338-7.633L42 29.638l-7.623-.023L32 22l-2.379 7.615-7.621.023 6.154 4.729L25.82 42z"/><g fill="#699635"><path d="M56.707 15C51.299 7.15 42.254 2 32 2S12.703 7.15 7.295 15h49.412zM7.295 49C12.703 56.85 21.746 62 32 62s19.299-5.15 24.707-13H7.295z"/></g></svg>

<svg xmlns="http://www.w3.org/2000/svg" viewBox="0 0 64 64" enable-background="new 0 0 64 64"><path fill="#c94747" d="M2,32c0,3.885,0.746,7.593,2.092,11H59.91C61.254,39.593,62,35.885,62,32s-0.746-7.593-2.09-11H4.092
		C2.746,24.407,2,28.115,2,32z"/><g fill="#fff"><path d="m7.285 49h49.43c1.281-1.859 2.355-3.87 3.195-6h-55.818c.84 2.13 1.912 4.141 3.193 6"/><path d="m4.092 21h55.818c-.84-2.13-1.914-4.141-3.195-6h-49.43c-1.281 1.859-2.353 3.87-3.193 6"/></g><path fill="#ffce31" d="M32 37.31 38.18 42 35.844 34.37 42 29.638 34.377 29.615 32 22 29.621 29.615 22 29.638 28.15 34.37 25.82 42z"/><g fill="#699635"><path d="M56.707,15C51.299,7.15,42.254,2,32,2S12.703,7.15,7.295,15H56.707z"/><path d="M7.295,49C12.703,56.85,21.746,62,32,62s19.299-5.15,24.707-13H7.295z"/></g></svg>
